icons/cloudflare-worker-logo.svg

<svg xmlns="http://www.w3.org/2000/svg" width="256" height="256" fill="none" viewBox="0 0 256 256"><rect width="256" height="256" fill="#F4F2ED" rx="60"/><path fill="url(#paint0_linear_107_941)" d="M79.4225 40.5966L102.985 83.1058L81.346 122.056C80.3101 123.917 79.7664 126.01 79.7664 128.139C79.7664 130.269 80.3101 132.362 81.346 134.222L102.985 173.269L79.4225 215.778C74.9888 213.58 71.307 210.116 68.8433 205.824L31.3353 140.666C29.15 136.862 28 132.551 28 128.163C28 123.776 29.15 119.465 31.3353 115.661L68.8433 50.5026C71.3145 46.2287 74.9955 42.7819 79.4225 40.5966V40.5966Z"/><path fill="url(#paint1_linear_107_941)" d="M81.346 122.104C80.3188 123.959 79.7798 126.044 79.7798 128.163C79.7798 130.283 80.3188 132.368 81.346 134.222L102.985 173.269L79.4225 215.778C74.9889 213.58 71.3071 210.116 68.8434 205.824L31.3353 140.666C28.3539 135.521 45.0402 129.366 81.346 122.153V122.104Z" opacity=".7"/><path fill="url(#paint2_linear_107_941)" d="M81.8269 44.8764L102.985 83.1058L99.4749 89.2128L80.8171 57.6195C75.4313 48.8196 67.2084 53.3878 56.9177 71.1801L58.4565 68.5353L68.8434 50.5026C71.2889 46.2427 74.9349 42.7973 79.3264 40.5966L81.7788 44.8764H81.8269Z" opacity=".5"/><path fill="url(#paint3_linear_107_941)" d="M187.138 50.5027L224.646 115.661C229.118 123.355 229.118 132.972 224.646 140.666L187.138 205.824C184.945 209.623 181.791 212.778 177.992 214.973C174.194 217.168 169.885 218.324 165.499 218.327H127.991L174.635 134.223C175.663 132.368 176.202 130.283 176.202 128.164C176.202 126.044 175.663 123.959 174.635 122.105L127.991 38H165.499C169.885 38.0028 174.194 39.1595 177.992 41.3541C181.791 43.5486 184.945 46.7037 187.138 50.5027V50.5027Z"/><path fill="url(#paint4_linear_107_941)" d="M163.575 218.039L126.548 218.375L171.365 133.838C172.367 131.958 172.891 129.861 172.891 127.731C172.891 125.601 172.367 123.503 171.365 121.624L126.548 38H135.011L182.041 121.239C183.155 123.205 183.737 125.429 183.729 127.689C183.72 129.949 183.122 132.168 181.993 134.126C171.871 151.718 161.821 169.35 151.842 187.022C142.705 203.083 146.649 213.422 163.575 218.039V218.039Z"/><path fill="url(#paint5_linear_107_941)" d="M90.4827 218.327C86.6357 218.327 82.7887 217.413 79.4226 215.778L125.683 132.347C127.125 129.75 127.125 126.577 125.683 123.98L79.4226 40.5967C82.8612 38.894 86.6456 38.0055 90.4827 38H127.991L174.635 122.105C175.663 123.959 176.202 126.044 176.202 128.164C176.202 130.283 175.663 132.368 174.635 134.223L127.991 218.327H90.4827Z"/><path fill="url(#paint6_linear_107_941)" d="M171.365 123.98L123.663 38H127.991L174.635 122.105C175.663 123.959 176.202 126.044 176.202 128.164C176.202 130.283 175.663 132.368 174.635 134.223L127.991 218.327H123.663L171.365 132.347C172.808 129.75 172.808 126.577 171.365 123.98V123.98Z" opacity=".6"/><path fill="url(#paint7_linear_107_941)" d="M125.683 123.98L79.4226 40.5968C80.8652 39.8274 82.5964 39.2503 84.2313 38.7694C94.4258 57.0907 109.477 84.8851 129.433 122.105C130.461 123.959 131 126.044 131 128.164C131 130.283 130.461 132.368 129.433 134.223L83.51 217.365C81.8751 216.885 81.0095 216.548 79.4707 215.827L125.634 132.395C127.077 129.799 127.077 126.625 125.634 124.028L125.683 123.98Z" opacity=".6"/><defs><linearGradient id="paint0_linear_107_941" x1="65.493" x2="-11.309" y1="215.778" y2="92.263" gradientUnits="userSpaceOnUse"><stop stop-color="#EB6F07"/><stop offset="1" stop-color="#FAB743"/></linearGradient><linearGradient id="paint1_linear_107_941" x1="89.307" x2="49.763" y1="200.51" y2="159.839" gradientUnits="userSpaceOnUse"><stop stop-color="#D96504"/><stop offset="1" stop-color="#D96504" stop-opacity="0"/></linearGradient><linearGradient id="paint2_linear_107_941" x1="76.266" x2="97.2" y1="44.826" y2="78.454" gradientUnits="userSpaceOnUse"><stop stop-color="#EB6F07"/><stop offset="1" stop-color="#EB720A" stop-opacity="0"/></linearGradient><linearGradient id="paint3_linear_107_941" x1="177.995" x2="109.226" y1="218.327" y2="75.029" gradientUnits="userSpaceOnUse"><stop stop-color="#EE6F05"/><stop offset="1" stop-color="#FAB743"/></linearGradient><linearGradient id="paint4_linear_107_941" x1="107.564" x2="217.671" y1="218.375" y2="190.429" gradientUnits="userSpaceOnUse"><stop stop-color="#D96504" stop-opacity=".8"/><stop offset=".498" stop-color="#D96504" stop-opacity=".2"/><stop offset="1" stop-color="#D96504" stop-opacity="0"/></linearGradient><linearGradient id="paint5_linear_107_941" x1="127.812" x2="57.639" y1="218.327" y2="76.826" gradientUnits="userSpaceOnUse"><stop stop-color="#FFA95F"/><stop offset="1" stop-color="#FFEBC8"/></linearGradient><linearGradient id="paint6_linear_107_941" x1="127.918" x2="186.439" y1="39.984" y2="49.184" gradientUnits="userSpaceOnUse"><stop stop-color="#fff" stop-opacity=".5"/><stop offset="1" stop-color="#fff" stop-opacity=".1"/></linearGradient><linearGradient id="paint7_linear_107_941" x1="72.357" x2="144.69" y1="224.866" y2="214.211" gradientUnits="userSpaceOnUse"><stop stop-color="#fff" stop-opacity=".5"/><stop offset="1" stop-color="#fff" stop-opacity=".1"/></linearGradient></defs></svg>

<svg xmlns="http://www.w3.org/2000/svg" width="256" height="256" viewBox="0 0 256 256"><g fill="none"><rect width="256" height="256" fill="#242938" rx="60"/><path fill="url(#skillIconsWorkersDark0)" d="m79.423 40.597l23.562 42.509l-21.639 38.95a12.505 12.505 0 0 0 0 12.166l21.639 39.047l-23.562 42.509a25.003 25.003 0 0 1-10.58-9.954l-37.508-65.158a25.1 25.1 0 0 1 0-25.005l37.508-65.158a25.006 25.006 0 0 1 10.58-9.906"/><path fill="url(#skillIconsWorkersDark1)" d="M81.346 122.104a12.508 12.508 0 0 0 0 12.118l21.639 39.047l-23.562 42.509a25.003 25.003 0 0 1-10.58-9.954l-37.508-65.158c-2.981-5.145 13.705-11.3 50.011-18.513z" opacity=".7"/><path fill="url(#skillIconsWorkersDark2)" d="m81.827 44.876l21.158 38.23l-3.51 6.107L80.817 57.62c-5.386-8.8-13.609-4.232-23.9 13.56l1.54-2.645l10.386-18.032a25.005 25.005 0 0 1 10.483-9.906l2.453 4.28z" opacity=".5"/><path fill="url(#skillIconsWorkersDark3)" d="m187.138 50.503l37.508 65.158c4.472 7.694 4.472 17.311 0 25.005l-37.508 65.158a25.002 25.002 0 0 1-21.639 12.503h-37.508l46.644-84.104a12.5 12.5 0 0 0 0-12.118L127.991 38h37.508a25.004 25.004 0 0 1 21.639 12.503"/><path fill="url(#skillIconsWorkersDark4)" d="m163.575 218.039l-37.027.336l44.817-84.537a12.983 12.983 0 0 0 0-12.214L126.548 38h8.463l47.03 83.239a12.99 12.99 0 0 1-.048 12.887a7541.559 7541.559 0 0 0-30.151 52.896c-9.137 16.061-5.193 26.4 11.733 31.017"/><path fill="url(#skillIconsWorkersDark5)" d="M90.483 218.327c-3.847 0-7.694-.914-11.06-2.549l46.26-83.431a8.632 8.632 0 0 0 0-8.367l-46.26-83.383A25.005 25.005 0 0 1 90.483 38h37.508l46.644 84.105a12.494 12.494 0 0 1 0 12.118l-46.644 84.104z"/><path fill="url(#skillIconsWorkersDark6)" d="M171.365 123.98L123.663 38h4.328l46.644 84.105a12.494 12.494 0 0 1 0 12.118l-46.644 84.104h-4.328l47.702-85.98a8.627 8.627 0 0 0 0-8.367" opacity=".6"/><path fill="url(#skillIconsWorkersDark7)" d="m125.683 123.98l-46.26-83.383c1.442-.77 3.173-1.347 4.808-1.828c10.195 18.322 25.246 46.116 45.202 83.336a12.494 12.494 0 0 1 0 12.118L83.51 217.365c-1.635-.48-2.5-.817-4.04-1.538l46.164-83.432a8.627 8.627 0 0 0 0-8.367z" opacity=".6"/><defs><linearGradient id="skillIconsWorkersDark0" x1="65.493" x2="-11.309" y1="215.778" y2="92.263" gradientUnits="userSpaceOnUse"><stop stop-color="#EB6F07"/><stop offset="1" stop-color="#FAB743"/></linearGradient><linearGradient id="skillIconsWorkersDark1" x1="89.307" x2="49.763" y1="200.51" y2="159.839" gradientUnits="userSpaceOnUse"><stop stop-color="#D96504"/><stop offset="1" stop-color="#D96504" stop-opacity="0"/></linearGradient><linearGradient id="skillIconsWorkersDark2" x1="76.266" x2="97.2" y1="44.826" y2="78.454" gradientUnits="userSpaceOnUse"><stop stop-color="#EB6F07"/><stop offset="1" stop-color="#EB720A" stop-opacity="0"/></linearGradient><linearGradient id="skillIconsWorkersDark3" x1="177.995" x2="109.226" y1="218.327" y2="75.029" gradientUnits="userSpaceOnUse"><stop stop-color="#EE6F05"/><stop offset="1" stop-color="#FAB743"/></linearGradient><linearGradient id="skillIconsWorkersDark4" x1="107.564" x2="217.671" y1="218.375" y2="190.429" gradientUnits="userSpaceOnUse"><stop stop-color="#D96504" stop-opacity=".8"/><stop offset=".498" stop-color="#D96504" stop-opacity=".2"/><stop offset="1" stop-color="#D96504" stop-opacity="0"/></linearGradient><linearGradient id="skillIconsWorkersDark5" x1="127.812" x2="57.639" y1="218.327" y2="76.826" gradientUnits="userSpaceOnUse"><stop stop-color="#FFA95F"/><stop offset="1" stop-color="#FFEBC8"/></linearGradient><linearGradient id="skillIconsWorkersDark6" x1="127.918" x2="186.439" y1="39.984" y2="49.184" gradientUnits="userSpaceOnUse"><stop stop-color="#fff" stop-opacity=".5"/><stop offset="1" stop-color="#fff" stop-opacity=".1"/></linearGradient><linearGradient id="skillIconsWorkersDark7" x1="72.357" x2="144.69" y1="224.866" y2="214.211" gradientUnits="userSpaceOnUse"><stop stop-color="#fff" stop-opacity=".5"/><stop offset="1" stop-color="#fff" stop-opacity=".1"/></linearGradient></defs></g></svg>
